indy/rudy/player/images/icon_volume2.svg

<svg viewBox="0 0 512 512" xmlns="http://www.w3.org/2000/svg"><path d="m256 512c-140.609375 0-256-115.390625-256-256s115.390625-256 256-256 256 115.390625 256 256-115.390625 256-256 256zm0 0" fill="#deecf1"/><path d="m512 256c0-140.609375-115.390625-256-256-256v512c140.609375 0 256-115.390625 256-256zm0 0" fill="#c6e2e7"/><path d="m301 436v-360l-139.988281 105h-70.011719v150h70.011719zm0 0" fill="#384949"/><g fill="#293939"><path d="m256 402.246094 45 33.753906v-360l-45 33.753906zm0 0"/><path d="m381.464844 160.535156-21.210938 21.210938c40.941406 40.941406 40.941406 107.5625 0 148.507812l21.210938 21.210938c52.644531-52.632813 52.644531-138.296875 0-190.929688zm0 0"/><path d="m339.027344 309.027344c14.164062-14.148438 21.972656-32.988282 21.972656-53.027344s-7.808594-38.878906-21.972656-53.027344l-21.210938 21.210938c8.496094 8.496094 13.183594 19.789062 13.183594 31.816406s-4.6875 23.320312-13.183594 31.816406zm0 0"/></g></svg>

<?xml version="1.0" encoding="utf-8"?>
<!-- Generator: Adobe Illustrator 24.1.0, SVG Export Plug-In . SVG Version: 6.00 Build 0)  -->
<svg version="1.1" id="Layer_1" xmlns="http://www.w3.org/2000/svg" xmlns:xlink="http://www.w3.org/1999/xlink" x="0px" y="0px"
	 viewBox="0 0 512 512" style="enable-background:new 0 0 512 512;" xml:space="preserve">
<style type="text/css">
	.st0{fill:#DEECF1;}
	.st1{fill:#C6E2E7;}
	.st2{fill:#384949;}
	.st3{fill:#293939;}
</style>
<path class="st0" d="M256,512C115.4,512,0,396.6,0,256S115.4,0,256,0s256,115.4,256,256S396.6,512,256,512z"/>
<path class="st1" d="M512,256C512,115.4,396.6,0,256,0v512C396.6,512,512,396.6,512,256z"/>
<path class="st2" d="M301,436V76L161,181H91v150h70L301,436z"/>
<g>
	<path class="st3" d="M256,402.2l45,33.8V76l-45,33.8V402.2z"/>
</g>
</svg>
